images/indikatorenset/4319.svg

<?xml version="1.0" standalone="no"?><!DOCTYPE svg PUBLIC "-//W3C//DTD SVG 1.1//EN" "http://www.w3.org/Graphics/SVG/1.1/DTD/svg11.dtd"><svg xmlns:xlink="http://www.w3.org/1999/xlink" version="1.1" class="highcharts-root" style="font-family:Arial;font-size:9pt;" xmlns="http://www.w3.org/2000/svg" viewBox="0 0 600 400"><desc>Created with Highstock 5.0.7</desc><defs><clipPath id="highcharts-f8k6ine-1"><rect x="0" y="0" width="547" height="220" fill="none"></rect></clipPath><clipPath id="highcharts-f8k6ine-2"><rect x="0" y="0" width="547" height="220" fill="none"></rect></clipPath></defs><rect fill="#fbfbfb" class="highcharts-background" x="0" y="0" width="600" height="400" rx="0" ry="0"></rect><rect fill="none" class="highcharts-plot-background" x="43" y="109" width="547" height="220"></rect><g class="highcharts-label" style="cursor:pointer;" transform="translate(10,436)"><text x="0" y="0"><tspan>&gt; Indikator-Details</tspan></text></g><g class="highcharts-grid highcharts-xaxis-grid "><path fill="none" class="highcharts-grid-line" d="M 133.5 109 L 133.5 329 M 133.5 109 L 133.5 329" opacity="1"></path><path fill="none" class="highcharts-grid-line" d="M 224.5 109 L 224.5 329 M 224.5 109 L 224.5 329" opacity="1"></path><path fill="none" class="highcharts-grid-line" d="M 316.5 109 L 316.5 329 M 316.5 109 L 316.5 329" opacity="1"></path><path fill="none" class="highcharts-grid-line" d="M 407.5 109 L 407.5 329 M 407.5 109 L 407.5 329" opacity="1"></path><path fill="none" class="highcharts-grid-line" d="M 498.5 109 L 498.5 329 M 498.5 109 L 498.5 329" opacity="1"></path><path fill="none" class="highcharts-grid-line" d="M 589.5 109 L 589.5 329 M 589.5 109 L 589.5 329" opacity="1"></path><path fill="none" class="highcharts-grid-line" d="M 42.5 109 L 42.5 329 M 42.5 109 L 42.5 329" opacity="1"></path></g><g class="highcharts-grid highcharts-yaxis-grid "><path fill="none" stroke="#e6e6e6" stroke-width="1" class="highcharts-grid-line" d="M 43 329.5 L 590 329.5" opacity="1"></path><path fill="none" stroke="#e6e6e6" stroke-width="1" class="highcharts-grid-line" d="M 43 256.5 L 590 256.5" opacity="1"></path><path fill="none" stroke="#e6e6e6" stroke-width="1" class="highcharts-grid-line" d="M 43 182.5 L 590 182.5" opacity="1"></path><path fill="none" stroke="#e6e6e6" stroke-width="1" class="highcharts-grid-line" d="M 43 108.5 L 590 108.5" opacity="1"></path></g><g class="highcharts-grid highcharts-yaxis-grid "></g><rect fill="none" class="highcharts-plot-border" x="43" y="109" width="547" height="220"></rect><g class="highcharts-axis highcharts-xaxis "><path fill="none" class="highcharts-axis-line" stroke="#ccd6eb" stroke-width="1" d="M 43 329.5 L 590 329.5"></path></g><g class="highcharts-axis highcharts-yaxis "><path fill="none" class="highcharts-axis-line" d="M 43 109 L 43 329"></path></g><g class="highcharts-axis highcharts-yaxis "><path fill="none" class="highcharts-axis-line" d="M 590 109 L 590 329"></path></g><g class="highcharts-series-group"><g class="highcharts-series highcharts-series-0 highcharts-line-series highcharts-color-undefined " transform="translate(43,109) scale(1 1)" clip-path="url(#highcharts-f8k6ine-2)"><path fill="none" d="M 45.583333333333 146.66666666666669 L 136.75 152.5333333333333 L 227.91666666667 159.86666666666665 L 319.08333333333 157.66666666666669 L 410.25 159.86666666666665 L 501.41666666667 167.9333333333334" class="highcharts-graph" stroke="#FF8028" stroke-width="2" stroke-linejoin="round" stroke-linecap="round"></path><path fill="none" d="M 35.583333333333 146.66666666666669 L 45.583333333333 146.66666666666669 L 136.75 152.5333333333333 L 227.91666666667 159.86666666666665 L 319.08333333333 157.66666666666669 L 410.25 159.86666666666665 L 501.41666666667 167.9333333333334 L 511.41666666667 167.9333333333334" stroke-linejoin="round" visibility="visible" stroke="rgba(192,192,192,0.0001)" stroke-width="22" class="highcharts-tracker"></path></g><g class="highcharts-markers highcharts-series-0 highcharts-line-series highcharts-color-undefined highcharts-tracker" transform="translate(43,109) scale(1 1)" clip-path="none"></g><g class="highcharts-series highcharts-series-1 highcharts-line-series highcharts-color-undefined " transform="translate(43,109) scale(1 1)" clip-path="url(#highcharts-f8k6ine-2)"><path fill="none" d="M 45.583333333333 146.66666666666669 L 136.75 143 L 227.91666666667 150.33333333333334 L 319.08333333333 141.5333333333333 L 410.25 138.60000000000005 L 501.41666666667 140.06666666666663" class="highcharts-graph" stroke="#DC440E" stroke-width="2" stroke-linejoin="round" stroke-linecap="round"></path><path fill="none" d="M 35.583333333333 146.66666666666669 L 45.583333333333 146.66666666666669 L 136.75 143 L 227.91666666667 150.33333333333334 L 319.08333333333 141.5333333333333 L 410.25 138.60000000000005 L 501.41666666667 140.06666666666663 L 511.41666666667 140.06666666666663" stroke-linejoin="round" visibility="visible" stroke="rgba(192,192,192,0.0001)" stroke-width="22" class="highcharts-tracker"></path></g><g class="highcharts-markers highcharts-series-1 highcharts-line-series highcharts-color-undefined highcharts-tracker" transform="translate(43,109) scale(1 1)" clip-path="none"></g><g class="highcharts-series highcharts-series-2 highcharts-line-series highcharts-color-undefined " transform="translate(43,109) scale(1 1)" clip-path="url(#highcharts-f8k6ine-2)"><path fill="none" d="M 45.583333333333 146.66666666666669 L 136.75 123.93333333333338 L 227.91666666667 96.80000000000003 L 410.25 99" class="highcharts-graph" stroke="#B00000" stroke-width="2" stroke-linejoin="round" stroke-linecap="round"></path><path fill="none" d="M 35.583333333333 146.66666666666669 L 45.583333333333 146.66666666666669 L 136.75 123.93333333333338 L 227.91666666667 96.80000000000003 L 410.25 99 L 420.25 99" stroke-linejoin="round" visibility="visible" stroke="rgba(192,192,192,0.0001)" stroke-width="22" class="highcharts-tracker"></path></g><g class="highcharts-markers highcharts-series-2 highcharts-line-series highcharts-color-undefined highcharts-tracker" transform="translate(43,109) scale(1 1)" clip-path="none"></g><g class="highcharts-series highcharts-series-3 highcharts-line-series highcharts-color-undefined " transform="translate(43,109) scale(1 1)" clip-path="url(#highcharts-f8k6ine-2)"><path fill="none" d="M 45.583333333333 146.66666666666669 L 136.75 127.60000000000005 L 227.91666666667 115.86666666666665 L 319.08333333333 107.80000000000003 L 410.25 106.33333333333334 L 501.41666666667 80.66666666666669" class="highcharts-graph" stroke="#661200" stroke-width="2" stroke-linejoin="round" stroke-linecap="round"></path><path fill="none" d="M 35.583333333333 146.66666666666669 L 45.583333333333 146.66666666666669 L 136.75 127.60000000000005 L 227.91666666667 115.86666666666665 L 319.08333333333 107.80000000000003 L 410.25 106.33333333333334 L 501.41666666667 80.66666666666669 L 511.41666666667 80.66666666666669" stroke-linejoin="round" visibility="visible" stroke="rgba(192,192,192,0.0001)" stroke-width="22" class="highcharts-tracker"></path></g><g class="highcharts-markers highcharts-series-3 highcharts-line-series highcharts-color-undefined highcharts-tracker" transform="translate(43,109) scale(1 1)" clip-path="none"></g><g class="highcharts-series highcharts-series-4 highcharts-line-series highcharts-color-undefined " transform="translate(43,109) scale(1 1)" clip-path="url(#highcharts-f8k6ine-2)"><path fill="none" d="M 45.583333333333 146.66666666666669 L 136.75 123.93333333333338 L 227.91666666667 123.93333333333338 L 319.08333333333 118.06666666666663 L 410.25 38.866666666666646 L 501.41666666667 11.733333333333292" class="highcharts-graph" stroke="#D3E2E4" stroke-width="2" stroke-linejoin="round" stroke-linecap="round"></path><path fill="none" d="M 35.583333333333 146.66666666666669 L 45.583333333333 146.66666666666669 L 136.75 123.93333333333338 L 227.91666666667 123.93333333333338 L 319.08333333333 118.06666666666663 L 410.25 38.866666666666646 L 501.41666666667 11.733333333333292 L 511.41666666667 11.733333333333292" stroke-linejoin="round" visibility="visible" stroke="rgba(192,192,192,0.0001)" stroke-width="22" class="highcharts-tracker"></path></g><g class="highcharts-markers highcharts-series-4 highcharts-line-series highcharts-color-undefined highcharts-tracker" transform="translate(43,109) scale(1 1)" clip-path="none"></g></g><text x="10" text-anchor="start" class="highcharts-title" style="color:#000000;font-size:1.1em;font-weight:bold;fill:#000000;" y="20"><tspan>Verkehrsleistungsindex</tspan></text><text x="10" text-anchor="start" class="highcharts-subtitle" style="color:#000000;font-size:0.9em;fill:#000000;" y="38"><tspan>Indexwert (Basis 2010 = 100)</tspan></text><g class="highcharts-legend" transform="translate(10,40)"><rect fill="none" class="highcharts-legend-box" rx="0" ry="0" x="0" y="0" width="517" height="57" visibility="visible"></rect><g><g><g class="highcharts-legend-item highcharts-line-series highcharts-color-undefined highcharts-series-0" transform="translate(12,7)"><path fill="none" d="M 0 11 L 16 11" class="highcharts-graph" stroke="#FF8028" stroke-width="2"></path><text x="21" style="color:#333333;font-size:1em;font-weight:normal;cursor:pointer;fill:#333333;" text-anchor="start" y="15"><tspan>BS: MIV Stadtstrassennetz</tspan></text></g><g class="highcharts-legend-item highcharts-line-series highcharts-color-undefined highcharts-series-1" transform="translate(196.296875,7)"><path fill="none" d="M 0 11 L 16 11" class="highcharts-graph" stroke="#DC440E" stroke-width="2"></path><text x="21" y="15" style="color:#333333;font-size:1em;font-weight:normal;cursor:pointer;fill:#333333;" text-anchor="start"><tspan>BS: MIV Total</tspan></text></g><g class="highcharts-legend-item highcharts-line-series highcharts-color-undefined highcharts-series-2" transform="translate(311.25,7)"><path fill="none" d="M 0 11 L 16 11" class="highcharts-graph" stroke="#B00000" stroke-width="2"></path><text x="21" y="15" style="color:#333333;font-size:1em;font-weight:normal;cursor:pointer;fill:#333333;" text-anchor="start"><tspan>BS: ÖV</tspan></text></g><g class="highcharts-legend-item highcharts-line-series highcharts-color-undefined highcharts-series-3" transform="translate(392.234375,7)"><path fill="none" d="M 0 11 L 16 11" class="highcharts-graph" stroke="#661200" stroke-width="2"></path><text x="21" y="15" style="color:#333333;font-size:1em;font-weight:normal;cursor:pointer;fill:#333333;" text-anchor="start"><tspan>BS: ÖV BVB/BLT</tspan></text></g><g class="highcharts-legend-item highcharts-line-series highcharts-color-undefined highcharts-series-4" transform="translate(12,26)"><path fill="none" d="M 0 11 L 16 11" class="highcharts-graph" stroke="#D3E2E4" stroke-width="2"></path><text x="21" y="15" style="color:#333333;font-size:1em;font-weight:normal;cursor:pointer;fill:#333333;" text-anchor="start"><tspan>BS: Velo (wetterbereinigt)</tspan></text></g></g></g></g><g class="highcharts-axis-labels highcharts-xaxis-labels "><text x="88.58333333333334" style="color:#000000;cursor:default;font-size:0.9em;fill:#000000;" text-anchor="middle" transform="translate(0,0)" y="348" opacity="1"><tspan>2010</tspan></text><text x="179.75" style="color:#000000;cursor:default;font-size:0.9em;fill:#000000;" text-anchor="middle" transform="translate(0,0)" y="348" opacity="1"><tspan>2011</tspan></text><text x="270.9166666666667" style="color:#000000;cursor:default;font-size:0.9em;fill:#000000;" text-anchor="middle" transform="translate(0,0)" y="348" opacity="1"><tspan>2012</tspan></text><text x="362.08333333333337" style="color:#000000;cursor:default;font-size:0.9em;fill:#000000;" text-anchor="middle" transform="translate(0,0)" y="348" opacity="1"><tspan>2013</tspan></text><text x="453.25" style="color:#000000;cursor:default;font-size:0.9em;fill:#000000;" text-anchor="middle" transform="translate(0,0)" y="348" opacity="1"><tspan>2014</tspan></text><text x="544.4166666666666" style="color:#000000;cursor:default;font-size:0.9em;fill:#000000;" text-anchor="middle" transform="translate(0,0)" y="348" opacity="1"><tspan>2015</tspan></text></g><g class="highcharts-axis-labels highcharts-yaxis-labels "><text x="28" style="color:#000000;cursor:default;font-size:0.9em;fill:#000000;" text-anchor="end" transform="translate(0,0)" y="337" opacity="1"><tspan>90</tspan></text><text x="28" style="color:#000000;cursor:default;font-size:0.9em;fill:#000000;" text-anchor="end" transform="translate(0,0)" y="263" opacity="1"><tspan>100</tspan></text><text x="28" style="color:#000000;cursor:default;font-size:0.9em;fill:#000000;" text-anchor="end" transform="translate(0,0)" y="190" opacity="1"><tspan>110</tspan></text><text x="28" style="color:#000000;cursor:default;font-size:0.9em;fill:#000000;" text-anchor="end" transform="translate(0,0)" y="117" opacity="1"><tspan>120</tspan></text></g><g class="highcharts-axis-labels highcharts-yaxis-labels "></g><text x="10" class="highcharts-credits" text-anchor="start" style="cursor:default;color:#000000;font-size:0.8em;fill:#000000;" y="373"><tspan>Quelle: Amt für</tspan><tspan dy="12.600000000000001" x="10">Mobilität Basel-</tspan><tspan dy="12.600000000000001" x="10">Stadt</tspan><title>Quelle: Amt für Mobilität Basel-Stadt</title></text></svg>

<svg class="highcharts-root" xmlns="http://www.w3.org/2000/svg" viewBox="0 0 600 400" font-family="Arial" font-size="12">
    <defs>
        <clipPath id="a">
            <path fill="none" d="M0 0h547v220H0z"/>
        </clipPath>
    </defs>
    <rect fill="#fbfbfb" class="highcharts-background" width="600" height="400" rx="0" ry="0"/>
    <path fill="none" class="highcharts-plot-background" d="M43 109h547v220H43z"/>
    <text transform="translate(10 436)" class="highcharts-label" cursor="pointer">
        <tspan>&gt; Indikator-Details</tspan>
    </text>
    <g class="highcharts-grid highcharts-xaxis-grid">
        <path fill="none" class="highcharts-grid-line" d="M133.5 109v220m0-220v220m91-220v220m0-220v220m92-220v220m0-220v220m91-220v220m0-220v220m91-220v220m0-220v220m91-220v220m0-220v220m-547-220v220m0-220v220"/>
    </g>
    <g class="highcharts-grid highcharts-yaxis-grid">
        <path fill="none" stroke="#e6e6e6" class="highcharts-grid-line" d="M43 329.5h547m-547-73h547m-547-74h547m-547-74h547"/>
    </g>
    <path fill="none" class="highcharts-plot-border" d="M43 109h547v220H43z"/>
    <g class="highcharts-axis highcharts-xaxis">
        <path fill="none" class="highcharts-axis-line" stroke="#ccd6eb" d="M43 329.5h547"/>
    </g>
    <g class="highcharts-axis highcharts-yaxis">
        <path fill="none" class="highcharts-axis-line" d="M43 109v220"/>
    </g>
    <g class="highcharts-axis highcharts-yaxis">
        <path fill="none" class="highcharts-axis-line" d="M590 109v220"/>
    </g>
    <g class="highcharts-series-group">
        <g class="highcharts-series highcharts-series-0 highcharts-line-series highcharts-color-undefined" transform="translate(43 109)" clip-path="url(#a)">
            <path fill="none" d="M45.583 146.667l91.167 5.866 91.167 7.334 91.166-2.2 91.167 2.2 91.167 8.066" class="highcharts-graph" stroke="#FF8028" stroke-width="2" stroke-linejoin="round" stroke-linecap="round"/>
            <path fill="none" d="M35.583 146.667h10l91.167 5.866 91.167 7.334 91.166-2.2 91.167 2.2 91.167 8.066h10" stroke-linejoin="round" stroke="rgba(192,192,192,0.0001)" stroke-width="22" class="highcharts-tracker"/>
        </g>
        <g class="highcharts-series highcharts-series-1 highcharts-line-series highcharts-color-undefined" transform="translate(43 109)" clip-path="url(#a)">
            <path fill="none" d="M45.583 146.667L136.75 143l91.167 7.333 91.166-8.8 91.167-2.933 91.167 1.467" class="highcharts-graph" stroke="#DC440E" stroke-width="2" stroke-linejoin="round" stroke-linecap="round"/>
            <path fill="none" d="M35.583 146.667h10L136.75 143l91.167 7.333 91.166-8.8 91.167-2.933 91.167 1.467h10" stroke-linejoin="round" stroke="rgba(192,192,192,0.0001)" stroke-width="22" class="highcharts-tracker"/>
        </g>
        <g class="highcharts-series highcharts-series-2 highcharts-line-series highcharts-color-undefined" transform="translate(43 109)" clip-path="url(#a)">
            <path fill="none" d="M45.583 146.667l91.167-22.734L227.917 96.8 410.25 99" class="highcharts-graph" stroke="#B00000" stroke-width="2" stroke-linejoin="round" stroke-linecap="round"/>
            <path fill="none" d="M35.583 146.667h10l91.167-22.734L227.917 96.8 410.25 99h10" stroke-linejoin="round" stroke="rgba(192,192,192,0.0001)" stroke-width="22" class="highcharts-tracker"/>
        </g>
        <g class="highcharts-series highcharts-series-3 highcharts-line-series highcharts-color-undefined" transform="translate(43 109)" clip-path="url(#a)">
            <path fill="none" d="M45.583 146.667L136.75 127.6l91.167-11.733 91.166-8.067 91.167-1.467 91.167-25.666" class="highcharts-graph" stroke="#661200" stroke-width="2" stroke-linejoin="round" stroke-linecap="round"/>
            <path fill="none" d="M35.583 146.667h10L136.75 127.6l91.167-11.733 91.166-8.067 91.167-1.467 91.167-25.666h10" stroke-linejoin="round" stroke="rgba(192,192,192,0.0001)" stroke-width="22" class="highcharts-tracker"/>
        </g>
        <g class="highcharts-series highcharts-series-4 highcharts-line-series highcharts-color-undefined" transform="translate(43 109)" clip-path="url(#a)">
            <path fill="none" d="M45.583 146.667l91.167-22.734h91.167l91.166-5.866 91.167-79.2 91.167-27.134" class="highcharts-graph" stroke="#D3E2E4" stroke-width="2" stroke-linejoin="round" stroke-linecap="round"/>
            <path fill="none" d="M35.583 146.667h10l91.167-22.734h91.167l91.166-5.866 91.167-79.2 91.167-27.134h10" stroke-linejoin="round" stroke="rgba(192,192,192,0.0001)" stroke-width="22" class="highcharts-tracker"/>
        </g>
    </g>
    <text x="10" class="highcharts-title" y="20" color="#000" font-size="1.1em" font-weight="700">
        <tspan>Verkehrsleistungsindex</tspan>
    </text>
    <text x="10" class="highcharts-subtitle" y="38" color="#000" font-size=".9em">
        <tspan>Indexwert (Basis 2010 = 100)</tspan>
    </text>
    <g class="highcharts-legend" transform="translate(10 40)">
        <rect fill="none" class="highcharts-legend-box" rx="0" ry="0" width="517" height="57"/>
        <g class="highcharts-legend-item highcharts-line-series highcharts-color-undefined highcharts-series-0">
            <path fill="none" d="M12 18h16" class="highcharts-graph" stroke="#FF8028" stroke-width="2"/>
            <text x="21" y="15" color="#333" font-size="1em" font-weight="400" cursor="pointer" fill="#333" transform="translate(12 7)">
                <tspan>BS: MIV Stadtstrassennetz</tspan>
            </text>
        </g>
        <g class="highcharts-legend-item highcharts-line-series highcharts-color-undefined highcharts-series-1">
            <path fill="none" d="M196.297 18h16" class="highcharts-graph" stroke="#DC440E" stroke-width="2"/>
            <text x="21" y="15" color="#333" font-size="1em" font-weight="400" cursor="pointer" fill="#333" transform="translate(196.297 7)">
                <tspan>BS: MIV Total</tspan>
            </text>
        </g>
        <g class="highcharts-legend-item highcharts-line-series highcharts-color-undefined highcharts-series-2">
            <path fill="none" d="M311.25 18h16" class="highcharts-graph" stroke="#B00000" stroke-width="2"/>
            <text x="21" y="15" color="#333" font-size="1em" font-weight="400" cursor="pointer" fill="#333" transform="translate(311.25 7)">
                <tspan>BS: ÖV</tspan>
            </text>
        </g>
        <g class="highcharts-legend-item highcharts-line-series highcharts-color-undefined highcharts-series-3">
            <path fill="none" d="M392.234 18h16" class="highcharts-graph" stroke="#661200" stroke-width="2"/>
            <text x="21" y="15" color="#333" font-size="1em" font-weight="400" cursor="pointer" fill="#333" transform="translate(392.234 7)">
                <tspan>BS: ÖV BVB/BLT</tspan>
            </text>
        </g>
        <g class="highcharts-legend-item highcharts-line-series highcharts-color-undefined highcharts-series-4">
            <path fill="none" d="M12 37h16" class="highcharts-graph" stroke="#D3E2E4" stroke-width="2"/>
            <text x="21" y="15" color="#333" font-size="1em" font-weight="400" cursor="pointer" fill="#333" transform="translate(12 26)">
                <tspan>BS: Velo (wetterbereinigt)</tspan>
            </text>
        </g>
    </g>
    <g class="highcharts-axis-labels highcharts-xaxis-labels" text-anchor="middle" color="#000" cursor="default" font-size=".9em">
        <text x="88.583" y="348">
            <tspan>2010</tspan>
        </text>
        <text x="179.75" y="348">
            <tspan>2011</tspan>
        </text>
        <text x="270.917" y="348">
            <tspan>2012</tspan>
        </text>
        <text x="362.083" y="348">
            <tspan>2013</tspan>
        </text>
        <text x="453.25" y="348">
            <tspan>2014</tspan>
        </text>
        <text x="544.417" y="348">
            <tspan>2015</tspan>
        </text>
    </g>
    <g class="highcharts-axis-labels highcharts-yaxis-labels" text-anchor="end" color="#000" cursor="default" font-size=".9em">
        <text x="28" y="337">
            <tspan>90</tspan>
        </text>
        <text x="28" y="263">
            <tspan>100</tspan>
        </text>
        <text x="28" y="190">
            <tspan>110</tspan>
        </text>
        <text x="28" y="117">
            <tspan>120</tspan>
        </text>
    </g>
    <text x="10" class="highcharts-credits" y="373" cursor="default" color="#000" font-size=".8em">
        <tspan>Quelle: Amt für Mobilität Basel-Stadt</tspan>
    </text>
</svg>
